src/lib/packages/icons/src/assets/line/location-arrow-circle.svg

<svg width="24" height="24" viewBox="0 0 24 24" fill="none" xmlns="http://www.w3.org/2000/svg">
<path d="M14.914 7.375L6.98901 11.104C6.49901 11.334 6.211 11.8331 6.255 12.3721C6.29801 12.9121 6.66302 13.3559 7.18402 13.5049L9.09198 14.05C9.50998 14.17 9.83101 14.49 9.95001 14.908L10.495 16.8159C10.644 17.3369 11.089 17.7011 11.628 17.7451C11.664 17.7481 11.7 17.749 11.735 17.749C12.233 17.749 12.68 17.467 12.896 17.01L16.625 9.08594C16.859 8.58794 16.759 8.01593 16.371 7.62793C15.983 7.23993 15.411 7.141 14.914 7.375ZM11.781 15.8579L11.392 14.4961C11.129 13.5761 10.423 12.8699 9.50299 12.6069L8.14099 12.218L15.015 8.98389L11.781 15.8579ZM12 1.25C6.072 1.25 1.25 6.072 1.25 12C1.25 17.928 6.072 22.75 12 22.75C17.928 22.75 22.75 17.928 22.75 12C22.75 6.072 17.928 1.25 12 1.25ZM12 21.25C6.899 21.25 2.75 17.101 2.75 12C2.75 6.899 6.899 2.75 12 2.75C17.101 2.75 21.25 6.899 21.25 12C21.25 17.101 17.101 21.25 12 21.25Z" fill="currentColor"/>
</svg>

<svg xmlns="http://www.w3.org/2000/svg" width="24" height="24" fill="none"><path fill="currentColor" d="m14.914 7.375-7.925 3.729c-.49.23-.778.73-.734 1.268.043.54.408.984.929 1.133l1.908.545c.418.12.739.44.858.858l.545 1.908a1.277 1.277 0 0 0 1.24.933c.498 0 .945-.282 1.161-.739l3.729-7.924a1.274 1.274 0 0 0-.254-1.458 1.273 1.273 0 0 0-1.457-.253Zm-3.133 8.483-.389-1.362a2.735 2.735 0 0 0-1.889-1.89l-1.362-.388 6.874-3.234-3.234 6.874ZM12 1.25C6.072 1.25 1.25 6.072 1.25 12S6.072 22.75 12 22.75 22.75 17.928 22.75 12 17.928 1.25 12 1.25Zm0 20c-5.101 0-9.25-4.149-9.25-9.25S6.899 2.75 12 2.75s9.25 4.149 9.25 9.25-4.149 9.25-9.25 9.25Z"/></svg>
